src/lib/packages/icons/src/assets/line/angles-up-small.svg

<svg width="24" height="24" viewBox="0 0 24 24" fill="none" xmlns="http://www.w3.org/2000/svg">
<path d="M7.46999 11.5301C7.17699 11.2371 7.17699 10.762 7.46999 10.469L11.47 6.46902C11.763 6.17602 12.238 6.17602 12.531 6.46902L16.531 10.469C16.824 10.762 16.824 11.2371 16.531 11.5301C16.385 11.6761 16.193 11.75 16.001 11.75C15.809 11.75 15.617 11.6771 15.471 11.5301L12.001 8.06008L8.53103 11.5301C8.23703 11.8231 7.76299 11.8231 7.46999 11.5301ZM12.5301 12.47C12.2371 12.177 11.762 12.177 11.469 12.47L7.46902 16.47C7.17602 16.763 7.17602 17.238 7.46902 17.531C7.76202 17.824 8.23705 17.824 8.53005 17.531L12 14.0611L15.47 17.531C15.616 17.677 15.808 17.751 16 17.751C16.192 17.751 16.3841 17.678 16.5301 17.531C16.8231 17.238 16.8231 16.763 16.5301 16.47L12.5301 12.47Z" fill="currentColor"/>
</svg>

<svg xmlns="http://www.w3.org/2000/svg" width="24" height="24" fill="none"><path fill="currentColor" d="M7.47 11.53a.75.75 0 0 1 0-1.061l4-4a.75.75 0 0 1 1.061 0l4 4a.75.75 0 0 1-1.06 1.061l-3.47-3.47-3.47 3.47a.75.75 0 0 1-1.061 0Zm5.06.94a.75.75 0 0 0-1.061 0l-4 4a.75.75 0 1 0 1.061 1.061l3.47-3.47 3.47 3.47a.748.748 0 0 0 1.06 0 .75.75 0 0 0 0-1.061l-4-4Z"/></svg>
